X:52
M:2/4
L:1/8
K:G
|: dB "tr"B2 | GD "tr"D2 | EFGA | GE "tr"E2 | gfed | cBAG | FABc | BG "tr"G2 :|

